icons/google-play-icon.svg

<?xml version="1.0" encoding="UTF-8"?>
<svg width="256px" height="274px" viewBox="0 0 256 274" version="1.1" xmlns="http://www.w3.org/2000/svg" xmlns:xlink="http://www.w3.org/1999/xlink" preserveAspectRatio="xMidYMid">
    <g>
        <path d="M188.81319,178.874645 C221.272218,161.051727 245.880297,147.470853 248.001319,146.415618 C254.78648,142.806714 261.79324,133.256838 248.001319,125.838536 C243.548228,123.506467 219.573289,110.347687 188.81319,93.3795092 L146.171146,136.443648 L188.81319,178.874645 Z" fill="#FFD900"></path>
        <path d="M146.171146,136.443648 L10.3940643,273.286517 C13.5808739,273.708611 17.1792251,272.864423 21.4212696,270.532353 C30.3274526,265.657168 124.739324,214.098388 188.81319,178.885198 L146.171146,136.443648 Z" fill="#F43249"></path>
        <path d="M146.171146,136.443648 L188.81319,93.5905562 C188.81319,93.5905562 30.9711459,7.45172685 21.4212696,2.36549437 C17.8229184,0.233919759 13.7919209,-0.399221214 10.1830173,0.233919759 L146.171146,136.443648 Z" fill="#00EE76"></path>
        <path d="M146.171146,136.443648 L10.1830173,0.233919759 C4.6641385,1.51075405 0,6.38593954 0,16.3579099 C0,32.270853 0,244.003747 0,257.162527 C0,266.290309 3.60890354,272.864423 10.3940643,273.497564 L146.171146,136.443648 Z" fill="#00D3FF"></path>
    </g>
</svg>

<svg xmlns="http://www.w3.org/2000/svg" viewBox="0 0 255.93 273.498">
  <path fill="#ffd900" d="M188.813 178.875c32.46-17.823 57.067-31.404 59.188-32.46 6.785-3.608 13.792-13.158 0-20.576-4.453-2.333-28.428-15.491-59.188-32.46l-42.642 43.065z"/>
  <path fill="#f43249" d="M146.171 136.444 10.394 273.287c3.187.422 6.785-.423 11.027-2.755 8.906-4.875 103.318-56.434 167.392-91.647z"/>
  <path fill="#00ee76" d="m146.171 136.444 42.642-42.853S30.971 7.45 21.421 2.365C17.823.234 13.791-.399 10.183.234z"/>
  <path fill="#00d3ff" d="M146.171 136.444 10.183.234C4.664 1.51 0 6.386 0 16.358v240.805c0 9.127 3.609 15.701 10.394 16.335z"/>
</svg>
